X: 168
T: No_9_Song_Before_Emerging_from_Ashes_Hill.krn
N: Derived from No_9_Song_Before_Emerging_from_Ashes_Hill.krn
%%abc-version 2.0
%%abcx-abcm2ps-target-version 5.9.1 (29 Sep 2008)
%%abc-creator hum2abc beta
%%abcx-conversion-date 2019/03/15 08:37:56
%%humdrum-veritas 2487975594
%%humdrum-veritas-data 849930356
%%linebreak <none>
%%barnumbers 0
L: 1/8
M: 2/4
K: Gb clef=bass
[K:clef=bass][M:2/4]E,2B,2 ||  
[M:3/4]B,4B,2 ||  
[M:2/4]C2B,G,/F,/ | 
{/G,}G,4 ||  
[M:3/4]F,2z2B,2 ||  
[M:2/4]C2B,2 | 
G,2F,2 | 
G,2(3F,E,C, | 
E,/E,3/-E,2 ||  
[M:3/4]C,B,,z2E,C, ||  
[M:2/4]F,3/G,/E,2 ||  
[M:3/4]E,4C,/B,,/ z | 
E,4C,B,, | 
E,2E,4 ||  
[M:2/4]E,4- ||  
E,2z2 :|]  
